X:1
T:Alphabet Song
C:Traditional Kid's Song
M:4/4
L:1/4
Q:1/4=100
K:D
| D D A A|B B A2|G G F F|E/2E/2E/2E/2 D2|
w:A B C D E F G  H I J K L  M  N  O   P
  A A G2 | F F E2|A/2 A/2     A  G2 | F F E2|
w:Q R S    T U V  W~(dou-ble u) X | Y and Z
   D   D    A    A |B B A2 | G    G  F    F | E     A  D2|
w: Now I know my A B C's. Next time won't you sing with me.
